X:1
T:Title
%%score { ( 1 3 4 ) | ( 2 5 6 ) }
L:1/8
M:3/4
K:Ab
V:1 treble nm="Grand Piano"
V:3 treble 
V:4 treble 
V:2 bass 
V:5 bass 
V:6 bass 
V:1
 z2 z2[Q:1/4=108] cG | B4 z2 | B4 z2 | D6- | D6 | D2 z2 z G | c2 z2 z G | B2 z2 z F | z2 C2 cG | %9
 B4 z2 | B4 z2 | z2 D2 Bc | d4 z2 | =d2 c2 B2 | A2 =E2 F2 | B6- |[M:2/4] B4 |[M:1/4] E2 | %18
[M:3/4] c6 | =A6 | c2 c2 c2 | B4 z2 | d2 G2 G2 | G4 z2 | c2 F2 F2 | F4 z2 | c6 | e4 z2 | %28
 =d2 d2 d2 | d4 z2 | [Ec]2 [DB]2 [CA]2 |[M:7/8] [Fd]2 c3 B2 |[M:3/4] [CA]6- |[M:2/4] [CA]4 |] %34
V:2
 z6 | A,,2 [E,A,]2 z2 | C,2 [E,A,]2 z2 | B,,2 [E,G,]2 [E,G,]2 | z2 [E,G,]2 [E,G,]2 | %5
 B,,2 [E,G,D]2 [E,G,]2 | E,,2 [E,G,D]2 [E,G,]2 | A,,2 [E,A,C]2 [=D,=A,]2 | A,,2 [E,A,]2 z2 | %9
 A,,2 [E,A,]2 z2 | [C,,C,]2 [E,A,]2 z2 | D,2 [F,B,]2 z2 | [B,,,B,,]2 [F,B,]2 z2 | %13
 [F,,F,]2 [F,A,B,=D]2 z2 | [B,,,B,,]2 [F,A,B,=D]2 z2 | [E,,E,]2 [E,B,D]2 [E,A,D]2 | %16
[M:2/4] [E,G,D]4 |[M:1/4] z2 |[M:3/4] z2 E2 E2 | z2 E2 E2 | z2 [=DFA]2 [DFA]2 | %21
 z2[K:treble] [=DF]2 [DFA]2 | E,,2 [E,B,D]2 [E,B,D]2 | E,,2 [E,B,]2 [E,B,D]2 | %24
 A,,2 [E,A,C]2 [E,A,C]2 | E,,2 [E,A,]2 z2 | z2 E2 E2 | z2 F2 [F=A]2 | z2 [FA]2 [FA]2 | z2 E2 E2 | %30
 E,,2 =E,,2 F,,2 |[M:7/8] B,,2 [E,G,E]3 D2 |[M:3/4] A,2 E,2 C,2 |[M:2/4] A,,4 |] %34
V:3
 x6 | z2 C2 AG | z2 C2 AC | z2 B,2 B,2 | E,,2 B,2 B,2 | z2 E4 | z2 B4 | z2 A4 | E4 z2 | z2 C2 AG | %10
 z2 C2 A=E | F4 z2 | z2 D2 Bc | x6 | x6 | z2 G2 F2 |[M:2/4] E4 |[M:1/4] x2 |[M:3/4] z2 A2 A2 | %19
 z2 F2 F2 | x6 | z2 A2 B2 | x6 | z2 D2 G2 | x6 | z2 C2 E2 | z2 A2 A2 | z2 =A2 e2 | x6 | z2 G2 z2 | %30
 x6 |[M:7/8] x7 |[M:3/4] x6 |[M:2/4] x4 |] %34
V:4
 x6 | x6 | x6 | x6 | x6 | z2 z2 D2 | z2 z2 D2 | z2 z2 B,2 | x6 | x6 | x6 | x6 | x6 | x6 | x6 | x6 | %16
[M:2/4] x4 |[M:1/4] x2 |[M:3/4] x6 | x6 | x6 | x6 | x6 | x6 | x6 | x6 | x6 | x6 | x6 | x6 | x6 | %31
[M:7/8] x7 |[M:3/4] x6 |[M:2/4] x4 |] %34
V:5
 x6 | x6 | x6 | x6 | x6 | x6 | x6 | x6 | x6 | x6 | x6 | x6 | x6 | x6 | x6 | x6 |[M:2/4] x4 | %17
[M:1/4] x2 |[M:3/4] A,,6 | F,,6 | B,,6- | B,,6[K:treble] | x6 | x6 | x6 | x6 | A,6 | C6 | _C6 | %29
 B,4 z2 | x6 |[M:7/8] x7 |[M:3/4] x6 |[M:2/4] x4 |] %34
V:6
 x6 | x6 | x6 | x6 | x6 | x6 | x6 | x6 | x6 | x6 | x6 | x6 | x6 | x6 | x6 | x6 |[M:2/4] x4 | %17
[M:1/4] x2 |[M:3/4] x6 | x6 | x6 | B,,,6[K:treble] | x6 | x6 | x6 | x6 | x6 | x6 | x6 | x6 | x6 | %31
[M:7/8] x7 |[M:3/4] x6 |[M:2/4] x4 |] %34

